X: 27813
T: Morshiul Na Mara
R: hornpipe
M: 4/4
K: Eminor
|:E2 B2 B2 AF|E3 F D2 BD|E2 B2 B2 AF|DFAd B/c/d AF|
E2 B2 B2 AF|EGFD ED B2|dBAB DEFA|dfe^c dBAF:|
B2 e2 e3 g|fede f<a- a2|Bege Bege|^cdeg fd c/B/A|
B2 e2 e3 g|fede f<a- a2|Bege bege|^c2- ce/d/ cABG||

